X:2411
T:Gwenda's Welcome to Lancaster
O:england
M:4/4
Q:1/8=260
C:Andy Hornby
A:Lancaster
K:Em
E2B2 BA/B/ cB| D2A2 AG/A/ BG|\
E2e2 e^d/e/ fe| ^d2 B>c B3 A|\
B2 G>F GA/B/ AG| A2 F>E FG/A/ GF|\
E2e2 ^de/f/ B^c/d/|eB A/G/F/G/ E4::\
B2g2 gf/g/ ag| A2f2 fe/f/ gf|\
G2e2 ef/g/ fe| ^d>e fd B4|\
B2G>F GA/B/ AG|A2 F>E FG/A/ GF|\
E2e2 ^de/f/ B^c/d/|eB A/G/F/G/ E4:|
W:Copyright (C) Andy Hornby 31.1.97


